!!!!SEGMENT: pl-wumfc--r282--001-016_paderewski-ignacy-jan--exercises-1-exercise-16.krn
!!!cenid: 18xx:3175
!!!COM: Paderewski, Ignacy Jan
!!!COM-rismid: pe30029943
!!!CDT: 1860/11/18-1941/06/29
!!!CNT: Polish
!!!GTL: [Exercises 1]
!!!OTL: [Exercise] 16
!!!OMV: 016
!!!PDT:
!!!AGN:
!!!SMS-siglum: PL-Wumfc
!!!SMS-shelfmark: R282
!!!SMS-shelfwork: 001-016 G
!!!SMS-variant:
!!!SMS-altvar:
!!!NIFC-rismid: 1001158933
!!!URL-scan: http://repozytorium.nifc.pl/skany/pl-wumfc--r282
!!!ONB-nifc: UWAGA: pierwsza grupa ćwiczeń na skanach 0004-0007. Nr 016 – nie uwzględniać następujących po nim szkiców w 3 ostatnich systemach.
!!!AIN: 2 piano
!!!key: G
**kern	**kern
*part2	*part1
*group1	*group1
*staff2	*staff1
*I"[Pianoforte]	*I"[Pianoforte]
*I'	*I'
*Ipiano	*Ipiano
*ICklav	*ICklav
*clefF4	*clefG2
*k[f#]	*k[f#]
*G:	*G:
*M	*M
*>[A,A,B]	*>[A,A,B]
=1	=1
*>A	*>A
!!LO:TX:t=P:problem:brak kluczy na początku ćwiczenia
!	!LO:TX:b:t=C.f.
1G	4dd\
.	4b\
.	4ee\
.	4dd\
=2	=2
1A	4cc\
.	4b\
.	4cc\
.	4a/
=3	=3
1B	4g/
.	4gg\
.	4ff#\
.	4ee\
=4	=4
1d	4dd\
.	4cc\
.	4b\
.	4a/
=5	=5
1G	4b/
.	4a/
.	4b/
.	4g/
=6	=6
1F#	4a/
.	4b\
.	4cc#X\
.	4dd\
=7	=7
[1E	4cc#X\
.	4dd\
.	4ee\
.	4ff#\
=8	=8
1E]	4gg\
.	4ff#\
.	4gg\
.	4ee\
=9	=9
[1D	4ff#\
.	4gg\
.	4ff#\
.	4ee\
!!pagebreak:original
=10	=10
1D_	4dd\
.	4ee\
.	4ff#\
.	4gg\
=11	=11
1D_	4aa\
.	4gg\
.	4ff#\
.	4ee\
=12	=12
1D;]	1ff#;
=13	=13
1E	4ee\
.	4dd\
.	4cc\
.	4ee\
=14	=14
1F#	4dd\
.	4ee\
.	4dd\
.	4cc\
=15	=15
1G	4b\
.	4dd\
.	4cc\
.	4b\
=16	=16
1A	4a/
.	4g/
.	4f#/
.	4e/
=17	=17
1B	4d/
.	4e/
.	4f#/
.	4g/
=18	=18
!LO:N:vis=2	!
1A	4a/
.	4b/
.	4cc\
.	4dd\
=19	=19
[1G	4b\
.	4cc\
.	4b\
.	4a/
!!linebreak:original
=20	=20
1G;]	1g;
=21:|!	=21:|!
*>B	*>B
1B	4dd\
.	4cc\
.	4b\
.	4a/
=22	=22
*	*^
1B	4g#X/	4ryy
.	4f#X/	4a/
.	4g#/	4b/
.	4b\	4dd/
*	*v	*v
=23	=23
1A	4cc\
.	4dd\
.	4cc\
.	4b\
=24	=24
*	*^
1c	4a/	4ryy
.	4b/	4ryy
.	4cc\	4ryy
.	4e/	(4ee/
=25	=25	=25
1B	4f#X/	4dd/
!	!	!LO:TX:t=uniſ, Jn 2:problem:nieczytelny tekst
.	4e/	4cc/
.	4f#/	4dd/
.	4g#X/	4ee/
=26	=26	=26
[1A	4a/	4cc/
.	4b\	4dd/
.	4cc\	4cc/
.	4dd\	4b/
=27	=27	=27
1A;]	4cc\	1a;>)
.	4b\	.
.	2a;/	.
*	*v	*v
=28	=28
1E	4cc\
.	4b\
.	4cc\
.	4ee\
!!linebreak:original
=29	=29
1F#	4dd\
.	4ee\
.	4dd\
.	4cc\
=30	=30
1G	4b\
.	4a\
.	4b\
.	4dd\
=31	=31
1A	4cc\
.	4b\
.	4a/
.	4g/
=32	=32
!LO:TX:b:t=P:problem:nieczytelny tekst	!
1B	4f#/
.	4e/
.	4d/
.	4e/
=33	=33
1A	4f#/
.	4e/
.	4f#/
.	4a/
=34	=34
[1G	4b\
.	4cc\
.	4b\
.	4a/
=35	=35
1G;]	1g
!	!LO:TX:t=1a Lection /.../ 13/1 82 –:problem:nieczytelny tekst
==	==
*-	*-
!!!system-decoration: [(g1)]
!!!RDF**kern: > = above
!!!RDF**kern: < = below
!!!ENC: Katarzyna Serwa
!!!END: 2021-11-16
!!!ENC: Anastazja Marusiak
!!!END: 2021-11-12
